X:1102
T:Monymusk
P:Sir Archibald Grant of Monymusk
C:Daniel Dow, here from Joshua Campbell's Coll. 1788
R:Strathspey (8x32)
B:RSCDS 11-2
Z:Anselm Lingnau <anselm@strathspey.org>
M:4/4
L:1/8
K:G
e|"G"d<G B>G d>B "C"c>e|"G"d<G B>G AB/A/ "D"c>e|\
  "G"d>G B>G B/c/d d>g|"Am"e>c "D"A>d "G"B<G Ge|
  "G"d<G B>G d>B "C"c>e|"G"d<G B>G AB/A/ "D"c>e|\
  "G"d>G B>G B/c/d d>g|"Am"e>c "D"A>d "G"B<G G||
f|"G"g2 d>g B>g "D7"d>f|"G"g>d "(Am)"c>g B>g "D"A>f|\
  "G"g>d "C"e>g "G"d>g "(Em)"B>g|"Am"e>c "D"A>d "G"B<G G>f|
  "G"g>d d>g G>g "D7"d>f|"G"g>d "D"c>g "G"B>g "D7"A>f|\
  "G"g>d "C"e>g "G"d>g "Am7"c>g|"G"B<g "D"A>c "G"B<G G|]
